X:1
T:Alla Turca
T:Rondò alla Turca
T:Wolfgang Amadeus MOZART (1756-1791)
T:dalla SONATA N°11 (Serie 20  K331)
C:W. A. Mozart
L:1/8
Q:1/4=112
M:2/4
K:C
V:1 treble nm="Armonica" snm="Arm."
V:1
!p!"^Allegretto" (B/A/^G/A/ |: c) z (d/c/B/c/ | e) z (f/e/^d/e/ | b/a/^g/a/ b/a/g/a/) | c'2 .a.c' | %5
{ga} .b.a.g.a |{ga} .b.a.g.a |{ga} .b.a.g.^f ||1 e2 (B/A/^G/A/) :|2 e2 .e.f |: .g.g (a/g/f/e/) | %11
 d2 .e.f | .g.g (a/g/f/e/) | d2 .c.d | .e.e (f/e/d/c/) | B2 .c.d | .e.e (f/e/d/c/) | %17
 B2 (B/A/^G/A/ | c) z (d/c/B/c/ | e) z (f/e/^d/e/ |!<(! b/a/^g/a/ b/a/g/a/!<)! | c'2) .a.b | %22
 .c'.b.a.^g | .a.e.f.d | c2 (!trill(!TB3/2A/4(B/4 ||1 A2) .e.f :|2[K:A] A2)!f! AB |: c2 AB | cBAG | %29
 FGAB | GEAB | c2 AB | cBAG | FBGE ||1 A2 AB :|2 A2!p!"_e legato" !trill(!Tc'/d'/!trill)!c'/b/ |: %36
 a/b/a/g/ f/a/g/f/ | ^e/f/g/e/ c/^d/e/c/ | !trill(!Tf/^e/!trill)!f/g/ a/g/a/b/ | %39
 !trill(!Tc'/^b/c'/b/ c'/d'/c'/!trill)!=b/ | a/b/a/g/ f/a/g/f/ | e/f/g/e/ c/^d/e/c/ | %42
 ^d/e/f/d/ ^B/c/d/B/ ||1 c2 c'/d'/c'/b/ :|2 c2!f!"_e legato" e/d/c/B/ |: A/B/c/d/ e/f/g/a/ | %46
 a/g/f/e/ e/d/c/B/ | A/B/c/d/ e/f/g/a/ | ^ab e/d/c/B/ | A/B/c/d/ e/f/g/a/ | a/g/f/e/ e/d/c/B/ | %51
 c/e/A/c/ B/d/G/B/ | A2!p! c'/d'/c'/b/ | a/b/a/g/ f/a/g/f/ | ^e/f/g/e/ c/^d/e/c/ | %55
 f/^e/f/g/ a/g/a/!trill(!Tb/ | c'/^b/c'/b/ c'/b/c'/!trill)!^a/ | %57
 !trill(!Td'/c'/d'/c'/ d'/c'/d'/!trill)!c'/ | d'/c'/b/a/ g/a/b/g/ | a/b/c'/f/ ^e/f/g/e/ ||1 %60
 f2"_legato" e/d/c/B/ :|2 f2!f! ab |: c'2 ab | c'bag | fgab | geab | c'2 ab | c'bag | fbge ||1 %69
 a2 ab :|2 a2 c'>c' || c'4 | c'4 | (d'/c'/).b/.c'/ (d'/c'/).b/.c'/ | d'4 | %75
{/d'} c'{/d'}c'{/d'}c'{/d'}c' | (b3 e') | c'4 | c'4 | (d'/c'/).b/.c'/ (d'/c'/).b/.c'/ | d'4 | %81
{/d'} c'4 |{/c'} b{/c'}b{/c'}b{/c'}b |!p! a2{ea} c'>c' |{ea} c'4 |{ea} c'4 | %86
 (d'/c'/).b/.c'/ (d'/c'/).b/.c'/ | d'4 |{/d'} c'{/d'}c'{/d'} c'{/d'}c' | (b3 e') |!f! c'4 | c'4 | %92
 (d'/c'/).b/.c'/ (d'/c'/).b/.c'/ | d'4 |{/d'} c'4 |{/c'} b{/c'}b{/c'} b{/c'}b | a3 c' | a3 e' | %98
 a3 c' | .a.c'.a.e' | .a2 !>!a2 | !>!a2 z2 |] %102

